assets/icons/qvision/location_city.svg

<svg xmlns="http://www.w3.org/2000/svg" height="24" viewBox="0 0 24 24" width="24"><path d="M0 0h24v24H0z" fill="none"/><path d="M15 11V5l-3-3-3 3v2H3v14h18V11h-6zm-8 8H5v-2h2v2zm0-4H5v-2h2v2zm0-4H5V9h2v2zm6 8h-2v-2h2v2zm0-4h-2v-2h2v2zm0-4h-2V9h2v2zm0-4h-2V5h2v2zm6 12h-2v-2h2v2zm0-4h-2v-2h2v2z"/></svg>

<svg width="24" height="24" viewBox="0 0 24 24" fill="none" xmlns="http://www.w3.org/2000/svg">
<g clip-path="url(#clip0_147_6503)">
<path d="M15 11V5L12 2L9 5V7H3V21H21V11H15ZM7 19H5V17H7V19ZM7 15H5V13H7V15ZM7 11H5V9H7V11ZM13 19H11V17H13V19ZM13 15H11V13H13V15ZM13 11H11V9H13V11ZM13 7H11V5H13V7ZM19 19H17V17H19V19ZM19 15H17V13H19V15Z" fill="#323232"/>
</g>
<defs>
<clipPath id="clip0_147_6503">
<rect width="24" height="24" fill="white"/>
</clipPath>
</defs>
</svg>
